X:11
T: The Kesh Jig
M: 6/8
L: 1/8
R: jig
K: Gmaj
Q:1/4=140
|: "G" G3 (GAB) | "D" ABA ABd | "G" edd gdd | "C" edB "D" dBA|
   "G" (GFG) GAB | "D" ABA ABd | "G" edd gdB |1 "D" AGF "G" uG2 uD :|2 "D" AGF "G" uG2 uA |
|: "G" B3 (dBd) | "C" ege "G" dBA | BAB dBG | "D" ABA AGA |
   "G" BAB dBd | "C" ege "G" dBd | gfg "D" a(ga) |1 "G" bgf ug2 ud :|2 "G" bgf g3 |]

% Ellen made several changes here:  slurs added,  notes changed.
